app/assets/img/work/ttl-clipla-sp.svg

<svg fill="none" height="21" viewBox="0 0 90 21" width="90" xmlns="http://www.w3.org/2000/svg"><path d="m14.287 15.099c.104 0 .208.0217.312.065.104.0347.2037.0997.299.195l1.742 1.833c-.7627.9967-1.7203 1.7507-2.873 2.262-1.144.5027-2.5003.754-4.069.754-1.43867 0-2.73-.2427-3.874-.728-1.13533-.494-2.10167-1.17-2.899-2.028-.78867-.8667-1.39533-1.8893-1.82-3.068-.424667-1.1873-.637-2.4743-.637-3.861 0-1.41267.242667-2.70833.728-3.887.48533-1.18733 1.16133-2.21 2.028-3.068.87533-.858 1.91967-1.52533 3.133-2.002s2.55233-.715001 4.017-.715001c.7107 0 1.378.065 2.002.195001.6327.12133 1.222.29467 1.768.52.546.21667 1.0487.481 1.508.793.4593.30333.8667.64133 1.222 1.014l-1.482 1.989c-.0953.12133-.208.234-.338.338-.13.09533-.312.143-.546.143-.156 0-.3033-.03467-.442-.104s-.286-.15167-.442-.247c-.156-.104-.3293-.21233-.52-.325-.182-.12133-.403-.22967-.663-.325-.2513-.104-.5503-.19067-.897-.26-.338-.06933-.7367-.104-1.196-.104-.79733 0-1.52533.143-2.184.429-.65867.27733-1.22633.68033-1.703 1.209-.468.52-.83633 1.15267-1.105 1.898-.26.74533-.39 1.58167-.39 2.509 0 .9707.13 1.833.39 2.587.26867.754.62833 1.391 1.079 1.911.45933.5113.99233.9013 1.599 1.17s1.25667.403 1.95.403c.3987 0 .7627-.0173 1.092-.052.3293-.0433.6327-.1127.91-.208.286-.0953.5547-.2167.806-.364.26-.156.52-.3467.78-.572.104-.0867.2167-.156.338-.208.1213-.0607.247-.091.377-.091zm9.0149 1.391h7.02v3.51h-11.414v-18.941h4.394zm14.1584 3.51h-4.42v-18.941h4.42zm8.1721-6.331v6.331h-4.394v-18.941h6.682c1.3347 0 2.4787.16033 3.432.481.962.312 1.7507.74533 2.366 1.3.624.55467 1.0834 1.209 1.378 1.963.2947.754.442 1.56867.442 2.444 0 .94467-.1516 1.81133-.455 2.6-.3033.7887-.767 1.4647-1.391 2.028s-1.417 1.0053-2.379 1.326c-.9533.312-2.0843.468-3.393.468zm0-3.315h2.288c1.144 0 1.9674-.273 2.47-.819.5027-.546.754-1.30867.754-2.288 0-.43333-.065-.82767-.195-1.183s-.3293-.65867-.598-.91c-.26-.26-.5936-.45933-1.001-.598-.3986-.13867-.8753-.208-1.43-.208h-2.288zm16.8401 6.136h7.02v3.51h-11.414v-18.941h4.394zm26.9764 3.51h-3.406c-.3813 0-.6976-.0867-.949-.26-.2426-.182-.4116-.4117-.507-.689l-1.118-3.302h-7.202l-1.118 3.302c-.0866.2427-.2556.4637-.507.663-.2513.1907-.559.286-.923.286h-3.432l7.332-18.941h4.498zm-12.168-7.241h5.174l-1.742-5.187c-.1126-.32933-.247-.715-.403-1.157-.1473-.45067-.2946-.936-.442-1.456-.1386.52867-.2816 1.01833-.429 1.469-.1473.45067-.286.84067-.416 1.17z" fill="#121111"/></svg>

<svg width="90" height="21" viewBox="0 0 90 21" fill="none" xmlns="http://www.w3.org/2000/svg">
<path d="M14.287 15.099C14.391 15.099 14.495 15.1207 14.599 15.164C14.703 15.1987 14.8027 15.2637 14.898 15.359L16.64 17.192C15.8773 18.1887 14.9197 18.9427 13.767 19.454C12.623 19.9567 11.2667 20.208 9.698 20.208C8.25933 20.208 6.968 19.9653 5.824 19.48C4.68867 18.986 3.72233 18.31 2.925 17.452C2.13633 16.5853 1.52967 15.5627 1.105 14.384C0.680333 13.1967 0.468 11.9097 0.468 10.523C0.468 9.11033 0.710667 7.81467 1.196 6.636C1.68133 5.44867 2.35733 4.426 3.224 3.568C4.09933 2.71 5.14367 2.04267 6.357 1.566C7.57033 1.08933 8.90933 0.850999 10.374 0.850999C11.0847 0.850999 11.752 0.915999 12.376 1.046C13.0087 1.16733 13.598 1.34067 14.144 1.566C14.69 1.78267 15.1927 2.047 15.652 2.359C16.1113 2.66233 16.5187 3.00033 16.874 3.373L15.392 5.362C15.2967 5.48333 15.184 5.596 15.054 5.7C14.924 5.79533 14.742 5.843 14.508 5.843C14.352 5.843 14.2047 5.80833 14.066 5.739C13.9273 5.66967 13.78 5.58733 13.624 5.492C13.468 5.388 13.2947 5.27967 13.104 5.167C12.922 5.04567 12.701 4.93733 12.441 4.842C12.1897 4.738 11.8907 4.65133 11.544 4.582C11.206 4.51267 10.8073 4.478 10.348 4.478C9.55067 4.478 8.82267 4.621 8.164 4.907C7.50533 5.18433 6.93767 5.58733 6.461 6.116C5.993 6.636 5.62467 7.26867 5.356 8.014C5.096 8.75933 4.966 9.59567 4.966 10.523C4.966 11.4937 5.096 12.356 5.356 13.11C5.62467 13.864 5.98433 14.501 6.435 15.021C6.89433 15.5323 7.42733 15.9223 8.034 16.191C8.64067 16.4597 9.29067 16.594 9.984 16.594C10.3827 16.594 10.7467 16.5767 11.076 16.542C11.4053 16.4987 11.7087 16.4293 11.986 16.334C12.272 16.2387 12.5407 16.1173 12.792 15.97C13.052 15.814 13.312 15.6233 13.572 15.398C13.676 15.3113 13.7887 15.242 13.91 15.19C14.0313 15.1293 14.157 15.099 14.287 15.099ZM23.3019 16.49H30.3219V20H18.9079V1.059H23.3019V16.49ZM37.4603 20H33.0403V1.059H37.4603V20ZM45.6324 13.669V20H41.2384V1.059H47.9204C49.2551 1.059 50.3991 1.21933 51.3524 1.54C52.3144 1.852 53.1031 2.28533 53.7184 2.84C54.3424 3.39467 54.8018 4.049 55.0964 4.803C55.3911 5.557 55.5384 6.37167 55.5384 7.247C55.5384 8.19167 55.3868 9.05833 55.0834 9.847C54.7801 10.6357 54.3164 11.3117 53.6924 11.875C53.0684 12.4383 52.2754 12.8803 51.3134 13.201C50.3601 13.513 49.2291 13.669 47.9204 13.669H45.6324ZM45.6324 10.354H47.9204C49.0644 10.354 49.8878 10.081 50.3904 9.535C50.8931 8.989 51.1444 8.22633 51.1444 7.247C51.1444 6.81367 51.0794 6.41933 50.9494 6.064C50.8194 5.70867 50.6201 5.40533 50.3514 5.154C50.0914 4.894 49.7578 4.69467 49.3504 4.556C48.9518 4.41733 48.4751 4.348 47.9204 4.348H45.6324V10.354ZM62.4725 16.49H69.4925V20H58.0785V1.059H62.4725V16.49ZM89.4489 20H86.0429C85.6616 20 85.3453 19.9133 85.0939 19.74C84.8513 19.558 84.6823 19.3283 84.5869 19.051L83.4689 15.749H76.2669L75.1489 19.051C75.0623 19.2937 74.8933 19.5147 74.6419 19.714C74.3906 19.9047 74.0829 20 73.7189 20H70.2869L77.6189 1.059H82.1169L89.4489 20ZM77.2809 12.759H82.4549L80.7129 7.572C80.6003 7.24267 80.4659 6.857 80.3099 6.415C80.1626 5.96433 80.0153 5.479 79.8679 4.959C79.7293 5.48767 79.5863 5.97733 79.4389 6.428C79.2916 6.87867 79.1529 7.26867 79.0229 7.598L77.2809 12.759Z" fill="#121111"/>
</svg>
